X:1
T:Title
%%score ( 1 2 ) { 3 | 4 }
L:1/8
Q:1/4=95
M:3/4
K:F
V:1 treble nm="Grand Piano, Soprano"
V:2 treble 
V:3 treble nm="Choir Pad, Beautiful Star (Thomas)"
V:4 bass 
V:1
 [FA][FB] [FA]2 [EG]2 | [EG][FA] [CG]2 [CF]2 | [CF][CG] [CF]2 [CE]2 | [DF][DB] [FA]4 | %4
w: By~John~Henry~Kurzenknabe,~1888 * * *||||
 [FA][FB] [FA]2 [EG]2 | [EG][FA] [CG]2 [CF]2 | [FB][Fd] [Fc]3 [FA] | [EG][CG] [CF]4 | %8
w: ||||
 [FA][FA] [FB]3 [FB] | [DF][FG] [FA]2 [FA]2 | [Ac][Bd] [Ac]3 [FA] | [GB][FA] [EG]4 | %12
w: ||||
 [FA][GB] [Ac]3 [FA] | [EG]F [FB]2 [Fd]2 | [Fc][FB] [FA]3 [GB] | [FA][CG] [CF]4 |[M:9/8] z3 B6 | %17
w: |||||
 z3 A6 | [Ac][GB][FA] [EG]3 [Ec]3 | [EB]3 [FA]3 [Fc]3 | z3 B6 | z3 A6 | [Ac][GB][FA] [EG]3 [Ed]3 | %23
w: ||||||
 [Ec]3 [EB]3 [FA]3- | [FA]6 z3 |] %25
w: ||
V:2
 x6 | x6 | x6 | x6 | x6 | x6 | x6 | x6 | x6 | x6 | x6 | x6 | x6 | x6 | x6 | x6 | %16
[M:9/8] FGA FFF F3 | dcB FFF F2 [FA] | x9 | x9 | FGA FFF F3 | dcB FFF F2 [FA] | x9 | x9 | x9 |] %25
V:3
 CC C2 C2 | CC[K:bass] B,2 A,2 | A,B, A,2 G,2 | CC C4 | CD C2 C2 | CC[K:bass] B,2 A,2 | %6
 DB, A,3[K:treble] C | CB, A,4 | CC D3 D | B,D C2 C2 | CC C3 C | CC C4 | CC C3 C | CA, D2 B,2 | %14
 CD C3 C | CB, A,4 |[M:9/8] z3 DDD D3 | z3 CCC C2 C | CCC C3 G,3 | C3 C3 A,3 | z3 DDD D3 | %21
 z3 CCC C2 C | CCC C3 G,3 | G,3 C3 C3- | C6 z3 |] %25
V:4
 F,F, C,2 C,2 | C,C, F,2 F,2 | F,F, C,2 C,2 | C,C, F,4 | F,F, C,2 C,2 | C,C, F,2 F,2 | %6
 B,,B,, C,3 C, | C,C, F,4 | F,F, B,,3 B,, | B,,B,, F,2 F,2 | F,F, F,3 F, | E,F, C,4 | F,F, F,3 F, | %13
 C,D, B,,2 B,,2 | A,,B,, C,3 C, | C,C, F,4 |[M:9/8] z3 B,,B,,B,, B,,3 | z3 F,F,F, F,2 F, | %18
 F,F,F, C,3 C,3 | C,3 F,3 F,3 | z3 B,,B,,B,, B,,3 | z3 F,F,F, F,2 F, | F,F,F, C,3 C,3 | %23
 C,3 C,3 F,3- | F,6 z3 |] %25

